X:34
T:Retour de Montaignac
I:last changed 26/2/2016
F:http://www.campin.me.uk/Music/Edinbal.abc
C:Frederic Paris
G:mazurka
M:3/4
L:1/8
Q:3/4=60
K:GMix
dc Ac|BG BA FA|G2 FG AB|c2 BA Bc|d2
dc Ac|BG BA FA|G2 FG AB|c2 Ac AF|G2:|
z4   |d3  e d2|c2 BA Bc|d2 de dB|c2
BA Bc|d3  e d2|c2 BA Bc|de dc AF|G2:|

